X: 681
T: Jenny Lind
C:Traditional
B: jims roots
M:4/4
L:1/8
Q: 1/4=100
K:A
V:1 
%TablEdited by  Mike Stangeland
%454
|: "A"[E2A,2] [e2A2] [e3c3]B | ABcA (3BcB A2 | E2 Ac e2 AF | "E"EFA"A"c (3BcB A2:|
|: "A"eeef e2 e2 | fecd efec | ABcd e2 e2 | fecd e2 e2 |
ABcd e2 e2 | fecd e2 e2 | eeef ecAF | "E"EFA"A"c (3BcB A2:|
% abcbook-tune_id 6298c25d92f795ef538f533b


% abcbook-boost 0
% abcbook-tablature 
% abcbook-transpose 
% abcbook-lastupdated 1665396489855
% abcbook-soundfonts 
% abcbook-repeats 1


